; G-Code generated by Simplify3D(R) Version 4.1.2
; Nov 21, 2020 at 8:42:01 PM
; Settings Summary
;   processName,Process1
;   applyToModels,20mm calibration cube,20mm calibration cube(2)
;   profileName,Argento Bear V2 (modified)
;   profileVersion,2020-11-21 17:33:19
;   baseProfile,Default (modified)
;   printMaterial,PLA
;   printQuality,Fast
;   printExtruders,
;   extruderName,Primary Extruder
;   extruderToolheadNumber,0
;   extruderDiameter,0.4
;   extruderAutoWidth,1
;   extruderWidth,0.48
;   extrusionMultiplier,1
;   extruderUseRetract,1
;   extruderRetractionDistance,1.7
;   extruderExtraRestartDistance,0
;   extruderRetractionZLift,0
;   extruderRetractionSpeed,3600
;   extruderUseCoasting,0
;   extruderCoastingDistance,0.2
;   extruderUseWipe,0
;   extruderWipeDistance,5.8
;   primaryExtruder,0
;   layerHeight,0.28
;   topSolidLayers,3
;   bottomSolidLayers,2
;   perimeterOutlines,1
;   printPerimetersInsideOut,1
;   startPointOption,3
;   startPointOriginX,100
;   startPointOriginY,100
;   sequentialIslands,0
;   spiralVaseMode,0
;   firstLayerHeightPercentage,100
;   firstLayerWidthPercentage,120
;   firstLayerUnderspeed,0.5
;   useRaft,0
;   raftExtruder,0
;   raftTopLayers,3
;   raftBaseLayers,2
;   raftOffset,3
;   raftSeparationDistance,0.14
;   raftTopInfill,100
;   aboveRaftSpeedMultiplier,0.3
;   useSkirt,1
;   skirtExtruder,0
;   skirtLayers,1
;   skirtOutlines,3
;   skirtOffset,7
;   usePrimePillar,0
;   primePillarExtruder,999
;   primePillarWidth,12
;   primePillarLocation,7
;   primePillarSpeedMultiplier,1
;   useOozeShield,0
;   oozeShieldExtruder,999
;   oozeShieldOffset,2
;   oozeShieldOutlines,1
;   oozeShieldSidewallShape,1
;   oozeShieldSidewallAngle,30
;   oozeShieldSpeedMultiplier,1
;   infillExtruder,0
;   internalInfillPattern,Rectilinear
;   externalInfillPattern,Rectilinear
;   infillPercentage,10
;   outlineOverlapPercentage,45
;   infillExtrusionWidthPercentage,100
;   minInfillLength,5
;   infillLayerInterval,1
;   internalInfillAngles,45,-45
;   overlapInternalInfillAngles,0
;   externalInfillAngles,45,-45
;   generateSupport,0
;   supportExtruder,0
;   supportInfillPercentage,25
;   supportExtraInflation,0
;   supportBaseLayers,1
;   denseSupportExtruder,0
;   denseSupportLayers,3
;   denseSupportInfillPercentage,70
;   supportLayerInterval,1
;   supportHorizontalPartOffset,0.5
;   supportUpperSeparationLayers,1
;   supportLowerSeparationLayers,1
;   supportType,0
;   supportGridSpacing,2.5
;   maxOverhangAngle,45
;   supportAngles,0
;   temperatureName,Primary Extruder,Bed
;   temperatureNumber,0,0
;   temperatureSetpointCount,1,1
;   temperatureSetpointLayers,1,1
;   temperatureSetpointTemperatures,205,60
;   temperatureStabilizeAtStartup,1,1
;   temperatureHeatedBed,0,1
;   fanLayers,1,5,10
;   fanSpeeds,0,30,60
;   blipFanToFullPower,1
;   adjustSpeedForCooling,1
;   minSpeedLayerTime,15
;   minCoolingSpeedSlowdown,20
;   increaseFanForCooling,1
;   minFanLayerTime,45
;   maxCoolingFanSpeed,100
;   increaseFanForBridging,1
;   bridgingFanSpeed,100
;   use5D,1
;   relativeEdistances,0
;   allowEaxisZeroing,1
;   independentExtruderAxes,0
;   includeM10123,0
;   stickySupport,1
;   applyToolheadOffsets,0
;   gcodeXoffset,0
;   gcodeYoffset,0
;   gcodeZoffset,0
;   overrideMachineDefinition,1
;   machineTypeOverride,0
;   strokeXoverride,210
;   strokeYoverride,210
;   strokeZoverride,230
;   originOffsetXoverride,0
;   originOffsetYoverride,0
;   originOffsetZoverride,0
;   homeXdirOverride,-1
;   homeYdirOverride,-1
;   homeZdirOverride,-1
;   flipXoverride,1
;   flipYoverride,-1
;   flipZoverride,1
;   toolheadOffsets,0,0|0,0|0,0|0,0|0,0|0,0
;   overrideFirmwareConfiguration,0
;   firmwareTypeOverride,RepRap (Marlin/Repetier/Sprinter)
;   GPXconfigOverride,r2
;   baudRateOverride,115200
;   overridePrinterModels,0
;   printerModelsOverride
;   startingGcode,M107,G21,G90,G28,G29,G0 X1 Y0 Z0.25 F9000,G92 E0,G1 X25 E60 F200,G92 E0,M420 S1,M117 "imprimiendo..",M900 K0,,,
;   layerChangeGcode,
;   retractionGcode,
;   toolChangeGcode,
;   endingGcode,M104 S0 ; turn off extruder,M140 S0 ; turn off bed,M107 S0;,G28 X;,G1 Y190;,M84 ; disable motors
;   exportFileFormat,gcode
;   celebration,0
;   celebrationSong,Funky Town
;   postProcessing,
;   defaultSpeed,3600
;   outlineUnderspeed,0.6
;   solidInfillUnderspeed,0.75
;   supportUnderspeed,0.8
;   rapidXYspeed,4800
;   rapidZspeed,10020
;   minBridgingArea,50
;   bridgingExtraInflation,0
;   bridgingExtrusionMultiplier,1
;   bridgingSpeedMultiplier,1
;   useFixedBridgingAngle,0
;   fixedBridgingAngle,0
;   applyBridgingToPerimeters,0
;   filamentDiameters,1.75|1.75|1.75|1.75|1.75|1.75
;   filamentPricesPerKg,1200|46|46|46|46|46
;   filamentDensities,1.25|1.25|1.25|1.25|1.25|1.25
;   useMinPrintHeight,0
;   minPrintHeight,35
;   useMaxPrintHeight,0
;   maxPrintHeight,0
;   useDiaphragm,0
;   diaphragmLayerInterval,20
;   robustSlicing,1
;   mergeAllIntoSolid,0
;   onlyRetractWhenCrossingOutline,1
;   retractBetweenLayers,1
;   useRetractionMinTravel,0
;   retractionMinTravel,3
;   retractWhileWiping,1
;   onlyWipeOutlines,1
;   avoidCrossingOutline,0
;   maxMovementDetourFactor,3
;   toolChangeRetractionDistance,12
;   toolChangeExtraRestartDistance,-0.5
;   toolChangeRetractionSpeed,600
;   externalThinWallType,0
;   internalThinWallType,1
;   thinWallAllowedOverlapPercentage,10
;   singleExtrusionMinLength,1
;   singleExtrusionMinPrintingWidthPercentage,50
;   singleExtrusionMaxPrintingWidthPercentage,200
;   singleExtrusionEndpointExtension,0.2
;   horizontalSizeCompensation,0
G90
M82
M106 S0
M140 S60
M190 S60
M104 S205 T0
M109 S205 T0
M107
G21
G90
G28
G29
G0 X1 Y0 Z0.25 F9000
G92 E0
G1 X25 E60 F200
G92 E0
M420 S1
M117 "imprimiendo.."
M900 K0
; process Process1
; layer 1, Z = 0.280
T0
G92 E0.0000
G1 E-1.7000 F3600
; feature skirt
; tool H0.280 W0.576
G1 Z0.280 F10020
G1 X59.929 Y56.510 F4800
G1 E0.0000 F3600
G92 E0.0000
G1 X54.985 Y61.454 E0.4688 F1800
G1 X27.993 Y61.454 E2.2787
G1 X23.049 Y56.510 E2.7475
G1 X23.049 Y29.518 E4.5574
G1 X27.993 Y24.574 E5.0262
G1 X54.985 Y24.574 E6.8361
G1 X59.929 Y29.518 E7.3049
G1 X59.929 Y56.510 E9.1148
G92 E0.0000
G1 E-1.7000 F3600
G1 X59.353 Y56.272 F4800
G1 E0.0000 F3600
G92 E0.0000
G1 X54.747 Y60.878 E0.4368 F1800
G1 X28.232 Y60.878 E2.2147
G1 X23.625 Y56.272 E2.6515
G1 X23.625 Y29.757 E4.4294
G1 X28.232 Y25.150 E4.8662
G1 X54.747 Y25.150 E6.6441
G1 X59.353 Y29.757 E7.0810
G1 X59.353 Y56.272 E8.8588
G92 E0.0000
G1 E-1.7000 F3600
G1 X58.777 Y56.033 F4800
G1 E0.0000 F3600
G92 E0.0000
G1 X54.508 Y60.302 E0.4048 F1800
G1 X28.470 Y60.302 E2.1507
G1 X24.201 Y56.033 E2.5556
G1 X24.201 Y29.996 E4.3014
G1 X28.470 Y25.726 E4.7063
G1 X54.508 Y25.726 E6.4522
G1 X58.777 Y29.996 E6.8570
G1 X58.777 Y56.033 E8.6029
G92 E0.0000
G1 E-1.7000 F3600
G1 X150.518 Y55.323 F4800
G1 E0.0000 F3600
G92 E0.0000
G1 X150.518 Y28.331 E1.8099 F1800
G1 X155.462 Y23.387 E2.2787
G1 X182.454 Y23.387 E4.0886
G1 X187.398 Y28.331 E4.5574
G1 X187.398 Y55.323 E6.3673
G1 X182.454 Y60.267 E6.8361
G1 X155.462 Y60.267 E8.6460
G1 X150.518 Y55.323 E9.1148
G92 E0.0000
G1 E-1.7000 F3600
G1 X151.094 Y55.084 F4800
G1 E0.0000 F3600
G92 E0.0000
G1 X151.094 Y28.569 E1.7779 F1800
G1 X155.701 Y23.963 E2.2147
G1 X182.215 Y23.963 E3.9926
G1 X186.822 Y28.569 E4.4294
G1 X186.822 Y55.084 E6.2073
G1 X182.215 Y59.691 E6.6441
G1 X155.701 Y59.691 E8.4220
G1 X151.094 Y55.084 E8.8588
G92 E0.0000
G1 E-1.7000 F3600
G1 X151.670 Y54.846 F4800
G1 E0.0000 F3600
G92 E0.0000
G1 X151.670 Y28.808 E1.7459 F1800
G1 X155.939 Y24.539 E2.1507
G1 X181.977 Y24.539 E3.8966
G1 X186.246 Y28.808 E4.3014
G1 X186.246 Y54.846 E6.0473
G1 X181.977 Y59.115 E6.4522
G1 X155.939 Y59.115 E8.1980
G1 X151.670 Y54.846 E8.6029
G92 E0.0000
G1 E-1.7000 F3600
; feature outer perimeter
G1 X51.201 Y52.726 F4800
G1 E0.0000 F3600
G92 E0.0000
G1 X31.777 Y52.726 E1.3024 F1080
G1 X31.777 Y33.302 E2.6049
G1 X51.201 Y33.302 E3.9073
G1 X51.201 Y52.726 E5.2097
; feature solid layer
G1 X32.125 Y52.410 F4800
G92 E0.0000
G1 X32.094 Y52.379 E0.0029 F1350
G1 X32.094 Y51.564 E0.0575
G1 X32.939 Y52.410 E0.1377
G1 X33.754 Y52.410 E0.1923
G1 X32.094 Y50.750 E0.3497
G1 X32.094 Y49.935 E0.4044
G1 X34.569 Y52.410 E0.6390
G1 X35.383 Y52.410 E0.6936
G1 X32.094 Y49.120 E1.0055
G1 X32.094 Y48.306 E1.0601
G1 X36.198 Y52.410 E1.4493
G1 X37.012 Y52.410 E1.5039
G1 X32.094 Y47.491 E1.9703
G1 X32.094 Y46.677 E2.0249
G1 X37.827 Y52.410 E2.5686
G1 X38.641 Y52.410 E2.6232
G1 X32.094 Y45.862 E3.2440
G1 X32.094 Y45.048 E3.2987
G1 X39.456 Y52.410 E3.9968
G1 X40.271 Y52.410 E4.0514
G1 X32.094 Y44.233 E4.8268
G1 X32.094 Y43.418 E4.8814
G1 X41.085 Y52.410 E5.7340
G1 X41.900 Y52.410 E5.7886
G1 X32.094 Y42.604 E6.7185
G1 X32.094 Y41.789 E6.7731
G1 X42.714 Y52.410 E7.7802
G1 X43.529 Y52.410 E7.8348
G1 X32.094 Y40.975 E8.9192
G1 X32.094 Y40.160 E8.9738
G1 X44.344 Y52.410 E10.1354
G1 X45.158 Y52.410 E10.1900
G1 X32.094 Y39.345 E11.4288
G1 X32.094 Y38.531 E11.4834
G1 X45.973 Y52.410 E12.7995
G1 X46.787 Y52.410 E12.8541
G1 X32.094 Y37.716 E14.2475
G1 X32.094 Y36.902 E14.3021
G1 X47.602 Y52.410 E15.7726
G1 X48.416 Y52.410 E15.8273
G1 X32.094 Y36.087 E17.3751
G1 X32.094 Y35.272 E17.4297
G1 X49.231 Y52.410 E19.0547
G1 X50.046 Y52.410 E19.1094
G1 X32.094 Y34.458 E20.8117
G1 X32.094 Y33.643 E20.8663
G1 X50.860 Y52.410 E22.6458
G1 X50.884 Y52.410 E22.6474
G1 X50.884 Y51.619 E22.7004
G1 X32.884 Y33.619 E24.4073
G1 X33.699 Y33.619 E24.4619
G1 X50.884 Y50.805 E26.0916
G1 X50.884 Y49.990 E26.1462
G1 X34.514 Y33.619 E27.6986
G1 X35.328 Y33.619 E27.7532
G1 X50.884 Y49.175 E29.2283
G1 X50.884 Y48.361 E29.2829
G1 X36.143 Y33.619 E30.6808
G1 X36.957 Y33.619 E30.7354
G1 X50.884 Y47.546 E32.0561
G1 X50.884 Y46.732 E32.1107
G1 X37.772 Y33.619 E33.3541
G1 X38.587 Y33.619 E33.4087
G1 X50.884 Y45.917 E34.5749
G1 X50.884 Y45.102 E34.6295
G1 X39.401 Y33.619 E35.7184
G1 X40.216 Y33.619 E35.7730
G1 X50.884 Y44.288 E36.7847
G1 X50.884 Y43.473 E36.8393
G1 X41.030 Y33.619 E37.7737
G1 X41.845 Y33.619 E37.8284
G1 X50.884 Y42.659 E38.6855
G1 X50.884 Y41.844 E38.7402
G1 X42.659 Y33.619 E39.5201
G1 X43.474 Y33.619 E39.5747
G1 X50.884 Y41.029 E40.2774
G1 X50.884 Y40.215 E40.3320
G1 X44.289 Y33.619 E40.9575
G1 X45.103 Y33.619 E41.0121
G1 X50.884 Y39.400 E41.5603
G1 X50.884 Y38.586 E41.6149
G1 X45.918 Y33.619 E42.0859
G1 X46.732 Y33.619 E42.1405
G1 X50.884 Y37.771 E42.5342
G1 X50.884 Y36.957 E42.5888
G1 X47.547 Y33.619 E42.9053
G1 X48.362 Y33.619 E42.9599
G1 X50.884 Y36.142 E43.1991
G1 X50.884 Y35.327 E43.2538
G1 X49.176 Y33.619 E43.4157
G1 X49.991 Y33.619 E43.4704
G1 X50.884 Y34.513 E43.5551
G1 X50.884 Y33.698 E43.6097
G1 X50.805 Y33.619 E43.6172
G92 E0.0000
G1 E-1.7000 F3600
; feature outer perimeter
G1 X159.246 Y51.539 F4800
G1 E0.0000 F3600
G92 E0.0000
G1 X159.246 Y32.115 E1.3024 F1080
G1 X178.670 Y32.115 E2.6049
G1 X178.670 Y51.539 E3.9073
G1 X159.246 Y51.539 E5.2097
; feature solid layer
G1 X159.642 Y51.222 F4800
G92 E0.0000
G1 X159.563 Y51.143 E0.0075 F1350
G1 X159.563 Y50.328 E0.0621
G1 X160.456 Y51.222 E0.1469
G1 X161.271 Y51.222 E0.2015
G1 X159.563 Y49.514 E0.3635
G1 X159.563 Y48.699 E0.4181
G1 X162.086 Y51.222 E0.6573
G1 X162.900 Y51.222 E0.7119
G1 X159.563 Y47.885 E1.0284
G1 X159.563 Y47.070 E1.0830
G1 X163.715 Y51.222 E1.4767
G1 X164.529 Y51.222 E1.5314
G1 X159.563 Y46.255 E2.0023
G1 X159.563 Y45.441 E2.0569
G1 X165.344 Y51.222 E2.6051
G1 X166.159 Y51.222 E2.6598
G1 X159.563 Y44.626 E3.2852
G1 X159.563 Y43.812 E3.3398
G1 X166.973 Y51.222 E4.0425
G1 X167.788 Y51.222 E4.0971
G1 X159.563 Y42.997 E4.8771
G1 X159.563 Y42.182 E4.9317
G1 X168.602 Y51.222 E5.7889
G1 X169.417 Y51.222 E5.8435
G1 X159.563 Y41.368 E6.7779
G1 X159.563 Y40.553 E6.8326
G1 X170.231 Y51.222 E7.8442
G1 X171.046 Y51.222 E7.8988
G1 X159.563 Y39.739 E8.9878
G1 X159.563 Y38.924 E9.0424
G1 X171.861 Y51.222 E10.2085
G1 X172.675 Y51.222 E10.2632
G1 X159.563 Y38.110 E11.5066
G1 X159.563 Y37.295 E11.5612
G1 X173.490 Y51.222 E12.8818
G1 X174.304 Y51.222 E12.9365
G1 X159.563 Y36.480 E14.3343
G1 X159.563 Y35.666 E14.3890
G1 X175.119 Y51.222 E15.8641
G1 X175.934 Y51.222 E15.9187
G1 X159.563 Y34.851 E17.4711
G1 X159.563 Y34.037 E17.5257
G1 X176.748 Y51.222 E19.1554
G1 X177.563 Y51.222 E19.2100
G1 X159.563 Y33.222 E20.9168
G1 X159.563 Y32.432 E20.9698
G1 X159.587 Y32.432 E20.9715
G1 X178.353 Y51.198 E22.7510
G1 X178.353 Y50.383 E22.8056
G1 X160.402 Y32.432 E24.5079
G1 X161.216 Y32.432 E24.5625
G1 X178.353 Y49.569 E26.1876
G1 X178.353 Y48.754 E26.2422
G1 X162.031 Y32.432 E27.7900
G1 X162.845 Y32.432 E27.8446
G1 X178.353 Y47.939 E29.3152
G1 X178.353 Y47.125 E29.3698
G1 X163.660 Y32.432 E30.7631
G1 X164.474 Y32.432 E30.8178
G1 X178.353 Y46.310 E32.1338
G1 X178.353 Y45.496 E32.1884
G1 X165.289 Y32.432 E33.4273
G1 X166.104 Y32.432 E33.4819
G1 X178.353 Y44.681 E34.6435
G1 X178.353 Y43.867 E34.6981
G1 X166.918 Y32.432 E35.7824
G1 X167.733 Y32.432 E35.8371
G1 X178.353 Y43.052 E36.8441
G1 X178.353 Y42.237 E36.8988
G1 X168.547 Y32.432 E37.8286
G1 X169.362 Y32.432 E37.8832
G1 X178.353 Y41.423 E38.7358
G1 X178.353 Y40.608 E38.7905
G1 X170.177 Y32.432 E39.5658
G1 X170.991 Y32.432 E39.6204
G1 X178.353 Y39.794 E40.3186
G1 X178.353 Y38.979 E40.3732
G1 X171.806 Y32.432 E40.9941
G1 X172.620 Y32.432 E41.0487
G1 X178.353 Y38.164 E41.5923
G1 X178.353 Y37.350 E41.6469
G1 X173.435 Y32.432 E42.1133
G1 X174.250 Y32.432 E42.1679
G1 X178.353 Y36.535 E42.5571
G1 X178.353 Y35.721 E42.6117
G1 X175.064 Y32.432 E42.9236
G1 X175.879 Y32.432 E42.9782
G1 X178.353 Y34.906 E43.2129
G1 X178.353 Y34.092 E43.2675
G1 X176.693 Y32.432 E43.4249
G1 X177.508 Y32.432 E43.4795
G1 X178.353 Y33.277 E43.5597
G1 X178.353 Y32.462 E43.6143
G1 X178.322 Y32.432 E43.6172
G92 E0.0000
G1 E-1.7000 F3600
; layer 2, Z = 0.560
M106 S255
G4 P500
M106 S32
; feature outer perimeter
; tool H0.280 W0.480
G1 Z0.560 F10020
G1 X159.198 Y51.587 F4800
G1 E0.0000 F3600
G92 E0.0000
G1 X159.198 Y32.067 E1.0907 F2160
G1 X178.718 Y32.067 E2.1814
G1 X178.718 Y51.587 E3.2722
G1 X159.198 Y51.587 E4.3629
; feature solid layer
G1 X159.462 Y32.984 F4800
G92 E0.0000
G1 X160.116 Y32.331 E0.0517 F2700
G1 X160.795 Y32.331 E0.0896
G1 X159.462 Y33.663 E0.1949
G1 X159.462 Y34.342 E0.2328
G1 X161.473 Y32.331 E0.3918
G1 X162.152 Y32.331 E0.4297
G1 X159.462 Y35.021 E0.6423
G1 X159.462 Y35.700 E0.6802
G1 X162.831 Y32.331 E0.9464
G1 X163.510 Y32.331 E0.9844
G1 X159.462 Y36.379 E1.3042
G1 X159.462 Y37.057 E1.3422
G1 X164.189 Y32.331 E1.7157
G1 X164.868 Y32.331 E1.7536
G1 X159.462 Y37.736 E2.1808
G1 X159.462 Y38.415 E2.2187
G1 X165.546 Y32.331 E2.6995
G1 X166.225 Y32.331 E2.7374
G1 X159.462 Y39.094 E3.2718
G1 X159.462 Y39.773 E3.3098
G1 X166.904 Y32.331 E3.8979
G1 X167.583 Y32.331 E3.9358
G1 X159.462 Y40.452 E4.5775
G1 X159.462 Y41.130 E4.6154
G1 X168.262 Y32.331 E5.3108
G1 X168.940 Y32.331 E5.3487
G1 X159.462 Y41.809 E6.0977
G1 X159.462 Y42.488 E6.1357
G1 X169.619 Y32.331 E6.9383
G1 X170.298 Y32.331 E6.9762
G1 X159.462 Y43.167 E7.8325
G1 X159.462 Y43.846 E7.8705
G1 X170.977 Y32.331 E8.7804
G1 X171.656 Y32.331 E8.8183
G1 X159.462 Y44.524 E9.7819
G1 X159.462 Y45.203 E9.8198
G1 X172.335 Y32.331 E10.8370
G1 X173.013 Y32.331 E10.8750
G1 X159.462 Y45.882 E11.9458
G1 X159.462 Y46.561 E11.9837
G1 X173.692 Y32.331 E13.1082
G1 X174.371 Y32.331 E13.1462
G1 X159.462 Y47.240 E14.3243
G1 X159.462 Y47.919 E14.3622
G1 X175.050 Y32.331 E15.5940
G1 X175.729 Y32.331 E15.6319
G1 X159.462 Y48.597 E16.9174
G1 X159.462 Y49.276 E16.9553
G1 X176.407 Y32.331 E18.2944
G1 X177.086 Y32.331 E18.3323
G1 X159.462 Y49.955 E19.7250
G1 X159.462 Y50.634 E19.7629
G1 X177.765 Y32.331 E21.2093
G1 X178.444 Y32.331 E21.2472
G1 X159.462 Y51.313 E22.7472
G1 X159.462 Y51.323 E22.7478
G1 X160.131 Y51.323 E22.7851
G1 X178.454 Y33.000 E24.2331
G1 X178.454 Y33.678 E24.2710
G1 X160.810 Y51.323 E25.6653
G1 X161.488 Y51.323 E25.7032
G1 X178.454 Y34.357 E27.0439
G1 X178.454 Y35.036 E27.0818
G1 X162.167 Y51.323 E28.3688
G1 X162.846 Y51.323 E28.4068
G1 X178.454 Y35.715 E29.6401
G1 X178.454 Y36.394 E29.6781
G1 X163.525 Y51.323 E30.8578
G1 X164.204 Y51.323 E30.8957
G1 X178.454 Y37.072 E32.0218
G1 X178.454 Y37.751 E32.0598
