; G-Code generated by Simplify3D(R) Version 4.1.2
; Nov 21, 2020 at 3:52:59 PM
; Settings Summary
;   processName,Process1
;   applyToModels,3d_benchy_quick_print (1)
;   profileName,Argento Bear V2 (modified)
;   profileVersion,2020-11-21 14:56:22
;   baseProfile,Default (modified)
;   printMaterial,PLA
;   printQuality,Fast
;   printExtruders,
;   extruderName,Primary Extruder
;   extruderToolheadNumber,0
;   extruderDiameter,0.4
;   extruderAutoWidth,1
;   extruderWidth,0.48
;   extrusionMultiplier,1
;   extruderUseRetract,1
;   extruderRetractionDistance,1.7
;   extruderExtraRestartDistance,0
;   extruderRetractionZLift,0
;   extruderRetractionSpeed,3600
;   extruderUseCoasting,0
;   extruderCoastingDistance,0.2
;   extruderUseWipe,0
;   extruderWipeDistance,5.8
;   primaryExtruder,0
;   layerHeight,0.28
;   topSolidLayers,3
;   bottomSolidLayers,2
;   perimeterOutlines,2
;   printPerimetersInsideOut,1
;   startPointOption,3
;   startPointOriginX,100
;   startPointOriginY,100
;   sequentialIslands,0
;   spiralVaseMode,0
;   firstLayerHeightPercentage,100
;   firstLayerWidthPercentage,120
;   firstLayerUnderspeed,0.5
;   useRaft,0
;   raftExtruder,0
;   raftTopLayers,3
;   raftBaseLayers,2
;   raftOffset,3
;   raftSeparationDistance,0.14
;   raftTopInfill,100
;   aboveRaftSpeedMultiplier,0.3
;   useSkirt,1
;   skirtExtruder,0
;   skirtLayers,1
;   skirtOutlines,3
;   skirtOffset,7
;   usePrimePillar,0
;   primePillarExtruder,999
;   primePillarWidth,12
;   primePillarLocation,7
;   primePillarSpeedMultiplier,1
;   useOozeShield,0
;   oozeShieldExtruder,999
;   oozeShieldOffset,2
;   oozeShieldOutlines,1
;   oozeShieldSidewallShape,1
;   oozeShieldSidewallAngle,30
;   oozeShieldSpeedMultiplier,1
;   infillExtruder,0
;   internalInfillPattern,Rectilinear
;   externalInfillPattern,Rectilinear
;   infillPercentage,10
;   outlineOverlapPercentage,45
;   infillExtrusionWidthPercentage,100
;   minInfillLength,5
;   infillLayerInterval,1
;   internalInfillAngles,45,-45
;   overlapInternalInfillAngles,0
;   externalInfillAngles,45,-45
;   generateSupport,0
;   supportExtruder,0
;   supportInfillPercentage,25
;   supportExtraInflation,0
;   supportBaseLayers,1
;   denseSupportExtruder,0
;   denseSupportLayers,3
;   denseSupportInfillPercentage,70
;   supportLayerInterval,1
;   supportHorizontalPartOffset,0.5
;   supportUpperSeparationLayers,1
;   supportLowerSeparationLayers,1
;   supportType,0
;   supportGridSpacing,2.5
;   maxOverhangAngle,45
;   supportAngles,0
;   temperatureName,Primary Extruder,Bed
;   temperatureNumber,0,0
;   temperatureSetpointCount,1,1
;   temperatureSetpointLayers,1,1
;   temperatureSetpointTemperatures,205,60
;   temperatureStabilizeAtStartup,1,1
;   temperatureHeatedBed,0,1
;   fanLayers,1,5
;   fanSpeeds,0,30
;   blipFanToFullPower,1
;   adjustSpeedForCooling,1
;   minSpeedLayerTime,15
;   minCoolingSpeedSlowdown,20
;   increaseFanForCooling,1
;   minFanLayerTime,45
;   maxCoolingFanSpeed,75
;   increaseFanForBridging,1
;   bridgingFanSpeed,100
;   use5D,1
;   relativeEdistances,0
;   allowEaxisZeroing,1
;   independentExtruderAxes,0
;   includeM10123,0
;   stickySupport,1
;   applyToolheadOffsets,0
;   gcodeXoffset,0
;   gcodeYoffset,0
;   gcodeZoffset,0
;   overrideMachineDefinition,1
;   machineTypeOverride,0
;   strokeXoverride,210
;   strokeYoverride,210
;   strokeZoverride,230
;   originOffsetXoverride,0
;   originOffsetYoverride,0
;   originOffsetZoverride,0
;   homeXdirOverride,-1
;   homeYdirOverride,-1
;   homeZdirOverride,-1
;   flipXoverride,1
;   flipYoverride,-1
;   flipZoverride,1
;   toolheadOffsets,0,0|0,0|0,0|0,0|0,0|0,0
;   overrideFirmwareConfiguration,0
;   firmwareTypeOverride,RepRap (Marlin/Repetier/Sprinter)
;   GPXconfigOverride,r2
;   baudRateOverride,115200
;   overridePrinterModels,0
;   printerModelsOverride
;   startingGcode,M107,G21,G90,G28,G29,G0 X1 Y0 Z0.25 F9000,G92 E0,G1 X25 E60 F200,G92 E0,M420 S1,M117 "imprimiendo..",M900 K0,,,
;   layerChangeGcode,
;   retractionGcode,
;   toolChangeGcode,
;   endingGcode,M104 S0 ; turn off extruder,M140 S0 ; turn off bed,M107 S0;,G28 X;,G1 Y190;,M84 ; disable motors
;   exportFileFormat,gcode
;   celebration,0
;   celebrationSong,Funky Town
;   postProcessing,
;   defaultSpeed,2400
;   outlineUnderspeed,0.6
;   solidInfillUnderspeed,0.75
;   supportUnderspeed,0.8
;   rapidXYspeed,4800
;   rapidZspeed,720
;   minBridgingArea,50
;   bridgingExtraInflation,0
;   bridgingExtrusionMultiplier,1
;   bridgingSpeedMultiplier,1
;   useFixedBridgingAngle,0
;   fixedBridgingAngle,0
;   applyBridgingToPerimeters,0
;   filamentDiameters,1.75|1.75|1.75|1.75|1.75|1.75
;   filamentPricesPerKg,1200|46|46|46|46|46
;   filamentDensities,1.25|1.25|1.25|1.25|1.25|1.25
;   useMinPrintHeight,0
;   minPrintHeight,35
;   useMaxPrintHeight,0
;   maxPrintHeight,0
;   useDiaphragm,0
;   diaphragmLayerInterval,20
;   robustSlicing,1
;   mergeAllIntoSolid,0
;   onlyRetractWhenCrossingOutline,1
;   retractBetweenLayers,1
;   useRetractionMinTravel,0
;   retractionMinTravel,3
;   retractWhileWiping,1
;   onlyWipeOutlines,1
;   avoidCrossingOutline,0
;   maxMovementDetourFactor,3
;   toolChangeRetractionDistance,12
;   toolChangeExtraRestartDistance,-0.5
;   toolChangeRetractionSpeed,600
;   externalThinWallType,0
;   internalThinWallType,1
;   thinWallAllowedOverlapPercentage,10
;   singleExtrusionMinLength,1
;   singleExtrusionMinPrintingWidthPercentage,50
;   singleExtrusionMaxPrintingWidthPercentage,200
;   singleExtrusionEndpointExtension,0.2
;   horizontalSizeCompensation,0
G90
M82
M106 S0
M140 S60
M190 S60
M104 S205 T0
M109 S205 T0
M107
G21
G90
G28
G29
G0 X1 Y0 Z0.25 F9000
G92 E0
G1 X25 E60 F200
G92 E0
M420 S1
M117 "imprimiendo.."
M900 K0
; process Process1
; layer 1, Z = 0.280
T0
G92 E0.0000
G1 E-1.7000 F3600
; feature skirt
; tool H0.280 W0.576
G1 Z0.280 F720
G1 X101.972 Y83.545 F4800
G1 E0.0000 F3600
G92 E0.0000
G1 X102.074 Y83.535 E0.0069 F1200
G1 X103.087 Y83.453 E0.0750
G1 X103.308 Y83.441 E0.0899
G1 X105.253 Y83.386 E0.2204
G1 X105.470 Y83.385 E0.2349
G1 X106.561 Y83.411 E0.3081
G1 X106.783 Y83.421 E0.3230
G1 X108.760 Y83.571 E0.4559
G1 X108.984 Y83.594 E0.4710
G1 X110.048 Y83.733 E0.5430
G1 X110.197 Y83.754 E0.5530
G1 X111.242 Y83.928 E0.6241
G1 X111.427 Y83.963 E0.6367
G1 X112.928 Y84.282 E0.7396
G1 X113.116 Y84.326 E0.7526
G1 X114.200 Y84.608 E0.8276
G1 X114.436 Y84.678 E0.8442
G1 X116.637 Y85.391 E0.9993
G1 X116.924 Y85.495 E1.0198
G1 X118.657 Y86.200 E1.1452
G1 X118.885 Y86.300 E1.1619
G1 X120.342 Y86.995 E1.2701
G1 X120.555 Y87.103 E1.2862
G1 X121.975 Y87.882 E1.3948
G1 X122.192 Y88.009 E1.4116
G1 X123.766 Y88.998 E1.5362
G1 X123.975 Y89.139 E1.5532
G1 X125.304 Y90.088 E1.6627
G1 X125.505 Y90.241 E1.6796
G1 X126.960 Y91.420 E1.8051
G1 X127.166 Y91.599 E1.8235
G1 X128.550 Y92.876 E1.9497
G1 X128.746 Y93.068 E1.9681
G1 X130.036 Y94.425 E2.0937
G1 X130.206 Y94.615 E2.1108
G1 X131.260 Y95.867 E2.2205
G1 X131.427 Y96.079 E2.2386
G1 X132.659 Y97.748 E2.3777
G1 X132.790 Y97.935 E2.3930
G1 X133.420 Y98.893 E2.4699
G1 X133.550 Y99.104 E2.4865
G1 X134.467 Y100.694 E2.6096
G1 X134.866 Y101.631 E2.6779
G1 X135.174 Y102.692 E2.7519
G1 X135.311 Y103.364 E2.7979
G1 X135.434 Y104.391 E2.8673
G1 X135.447 Y105.277 E2.9267
G1 X135.341 Y106.450 E3.0057
G1 X135.191 Y107.248 E3.0601
G1 X134.866 Y108.368 E3.1383
G1 X134.468 Y109.304 E3.2065
G1 X133.572 Y110.859 E3.3269
G1 X133.446 Y111.064 E3.3430
G1 X132.823 Y112.015 E3.4192
G1 X132.703 Y112.189 E3.4334
G1 X131.632 Y113.659 E3.5554
G1 X131.478 Y113.857 E3.5722
G1 X130.444 Y115.112 E3.6812
G1 X130.289 Y115.289 E3.6970
G1 X129.196 Y116.475 E3.8051
G1 X129.032 Y116.644 E3.8209
G1 X127.872 Y117.768 E3.9292
G1 X127.698 Y117.928 E3.9451
G1 X126.477 Y118.986 E4.0534
G1 X126.295 Y119.135 E4.0692
G1 X125.020 Y120.122 E4.1773
G1 X124.834 Y120.258 E4.1927
G1 X123.514 Y121.169 E4.3002
G1 X123.332 Y121.288 E4.3148
G1 X122.171 Y122.003 E4.4063
G1 X121.987 Y122.110 E4.4206
G1 X120.586 Y122.880 E4.5277
G1 X120.378 Y122.986 E4.5434
G1 X118.930 Y123.680 E4.6511
G1 X118.715 Y123.776 E4.6669
G1 X117.237 Y124.385 E4.7741
G1 X117.022 Y124.467 E4.7895
G1 X115.521 Y124.992 E4.8961
G1 X115.304 Y125.062 E4.9114
G1 X113.784 Y125.503 E5.0175
G1 X113.566 Y125.560 E5.0326
G1 X112.050 Y125.914 E5.1370
G1 X111.861 Y125.953 E5.1499
G1 X110.776 Y126.154 E5.2239
G1 X110.551 Y126.190 E5.2392
G1 X108.542 Y126.452 E5.3751
G1 X108.263 Y126.479 E5.3939
G1 X106.453 Y126.593 E5.5155
G1 X106.179 Y126.602 E5.5338
G1 X104.151 Y126.598 E5.6698
G1 X103.843 Y126.586 E5.6905
G1 X101.705 Y126.426 E5.8343
G1 X101.577 Y126.415 E5.8429
G1 X76.104 Y123.728 E7.5604
G1 X75.419 Y123.598 E7.6071
G1 X74.373 Y123.308 E7.6799
G1 X73.696 Y123.056 E7.7283
G1 X72.888 Y122.675 E7.7882
G1 X72.390 Y122.397 E7.8265
G1 X71.637 Y121.907 E7.8867
G1 X71.060 Y121.456 E7.9358
G1 X70.223 Y120.676 E8.0126
G1 X69.682 Y120.065 E8.0673
G1 X69.061 Y119.208 E8.1382
G1 X68.708 Y118.628 E8.1838
G1 X68.269 Y117.758 E8.2491
G1 X68.023 Y117.159 E8.2925
G1 X67.742 Y116.290 E8.3537
G1 X67.586 Y115.635 E8.3989
G1 X67.462 Y114.839 E8.4529
G1 X67.266 Y114.568 E8.4754
G1 X67.266 Y95.435 E9.7582
G1 X67.451 Y95.176 E9.7796
G1 X67.714 Y93.801 E9.8735
G1 X68.001 Y92.880 E9.9382
G1 X68.483 Y91.793 E10.0179
G1 X68.811 Y91.190 E10.0639
G1 X69.374 Y90.330 E10.1328
G1 X69.925 Y89.653 E10.1914
G1 X70.994 Y88.585 E10.2927
G1 X71.925 Y87.882 E10.3709
G1 X73.304 Y87.113 E10.4768
G1 X74.236 Y86.730 E10.5443
G1 X75.419 Y86.402 E10.6267
G1 X76.105 Y86.272 E10.6735
G1 X101.972 Y83.545 E12.4175
G92 E0.0000
G1 E-1.7000 F3600
G1 X102.029 Y84.118 F4800
G1 E0.0000 F3600
G92 E0.0000
G1 X102.124 Y84.109 E0.0064 F1200
G1 X103.126 Y84.028 E0.0738
G1 X103.332 Y84.017 E0.0876
G1 X105.262 Y83.962 E0.2171
G1 X105.464 Y83.961 E0.2307
G1 X106.540 Y83.986 E0.3028
G1 X106.747 Y83.996 E0.3167
G1 X108.709 Y84.145 E0.4486
G1 X108.917 Y84.167 E0.4627
G1 X109.969 Y84.303 E0.5338
G1 X110.107 Y84.324 E0.5432
G1 X111.142 Y84.495 E0.6135
G1 X111.314 Y84.528 E0.6252
G1 X112.802 Y84.844 E0.7273
G1 X112.977 Y84.885 E0.7393
G1 X114.046 Y85.164 E0.8134
G1 X114.267 Y85.228 E0.8288
G1 X116.449 Y85.935 E0.9826
G1 X116.717 Y86.033 E1.0017
G1 X118.433 Y86.730 E1.1259
G1 X118.645 Y86.824 E1.1415
G1 X120.087 Y87.511 E1.2486
G1 X120.285 Y87.612 E1.2635
G1 X121.691 Y88.383 E1.3710
G1 X121.893 Y88.502 E1.3867
G1 X123.452 Y89.481 E1.5102
G1 X123.647 Y89.612 E1.5260
G1 X124.961 Y90.552 E1.6343
G1 X125.149 Y90.695 E1.6501
G1 X126.590 Y91.861 E1.7744
G1 X126.783 Y92.028 E1.7915
G1 X128.153 Y93.293 E1.9165
G1 X128.335 Y93.472 E1.9336
G1 X129.612 Y94.815 E2.0579
G1 X129.771 Y94.993 E2.0739
G1 X130.813 Y96.230 E2.1824
G1 X130.969 Y96.428 E2.1993
G1 X132.191 Y98.084 E2.3373
G1 X132.313 Y98.258 E2.3515
G1 X132.934 Y99.203 E2.4273
G1 X133.055 Y99.399 E2.4428
G1 X133.951 Y100.951 E2.5629
G1 X134.322 Y101.825 E2.6266
G1 X134.614 Y102.830 E2.6968
G1 X134.741 Y103.456 E2.7396
G1 X134.858 Y104.430 E2.8054
G1 X134.871 Y105.255 E2.8607
G1 X134.770 Y106.371 E2.9359
G1 X134.630 Y107.114 E2.9866
G1 X134.323 Y108.174 E3.0606
G1 X133.952 Y109.046 E3.1241
G1 X133.077 Y110.565 E3.2416
G1 X132.959 Y110.756 E3.2566
G1 X132.345 Y111.693 E3.3318
G1 X132.233 Y111.855 E3.3450
G1 X131.171 Y113.313 E3.4659
G1 X131.028 Y113.497 E3.4816
G1 X130.004 Y114.740 E3.5895
G1 X129.861 Y114.905 E3.6042
G1 X128.778 Y116.078 E3.7113
G1 X128.625 Y116.236 E3.7260
G1 X127.477 Y117.349 E3.8332
G1 X127.315 Y117.498 E3.8480
G1 X126.106 Y118.546 E3.9553
G1 X125.937 Y118.684 E3.9699
G1 X124.674 Y119.662 E4.0770
G1 X124.501 Y119.788 E4.0914
G1 X123.193 Y120.690 E4.1979
G1 X123.024 Y120.801 E4.2115
G1 X121.875 Y121.509 E4.3019
G1 X121.704 Y121.609 E4.3152
G1 X120.316 Y122.371 E4.4214
G1 X120.122 Y122.470 E4.4360
G1 X118.688 Y123.157 E4.5426
G1 X118.488 Y123.246 E4.5573
G1 X117.024 Y123.850 E4.6635
G1 X116.824 Y123.926 E4.6778
G1 X115.338 Y124.446 E4.7834
G1 X115.135 Y124.511 E4.7977
G1 X113.631 Y124.948 E4.9027
G1 X113.428 Y125.001 E4.9168
G1 X111.926 Y125.351 E5.0202
G1 X111.750 Y125.388 E5.0322
G1 X110.679 Y125.587 E5.1053
G1 X110.469 Y125.620 E5.1195
G1 X108.477 Y125.879 E5.2543
G1 X108.217 Y125.904 E5.2717
G1 X106.426 Y126.018 E5.3921
G1 X106.171 Y126.025 E5.4092
G1 X104.162 Y126.022 E5.5439
G1 X103.875 Y126.011 E5.5631
G1 X101.752 Y125.852 E5.7059
G1 X101.633 Y125.841 E5.7139
G1 X76.188 Y123.158 E7.4295
G1 X75.550 Y123.036 E7.4731
G1 X74.551 Y122.759 E7.5426
G1 X73.920 Y122.525 E7.5877
G1 X73.152 Y122.162 E7.6447
G1 X72.688 Y121.903 E7.6803
G1 X71.972 Y121.438 E7.7375
G1 X71.434 Y121.017 E7.7833
G1 X70.636 Y120.273 E7.8565
G1 X70.132 Y119.704 E7.9075
G1 X69.541 Y118.889 E7.9750
G1 X69.212 Y118.348 E8.0174
G1 X68.794 Y117.519 E8.0797
G1 X68.564 Y116.961 E8.1202
G1 X68.297 Y116.135 E8.1784
G1 X68.151 Y115.524 E8.2205
G1 X68.010 Y114.615 E8.2822
G1 X67.842 Y114.382 E8.3015
G1 X67.842 Y95.621 E9.5594
G1 X68.010 Y95.388 E9.5786
G1 X68.022 Y95.257 E9.5874
G1 X68.273 Y93.942 E9.6773
G1 X68.541 Y93.083 E9.7376
G1 X69.000 Y92.047 E9.8135
G1 X69.305 Y91.486 E9.8564
G1 X69.839 Y90.670 E9.9217
G1 X70.353 Y90.039 E9.9763
G1 X71.373 Y89.020 E10.0730
G1 X72.240 Y88.366 E10.1458
G1 X73.554 Y87.633 E10.2467
G1 X74.423 Y87.276 E10.3097
G1 X75.550 Y86.964 E10.3881
G1 X76.189 Y86.842 E10.4317
G1 X102.029 Y84.118 E12.1739
G92 E0.0000
G1 E-1.7000 F3600
G1 X102.086 Y84.691 F4800
G1 E0.0000 F3600
G92 E0.0000
G1 X102.174 Y84.683 E0.0059 F1200
G1 X103.165 Y84.603 E0.0726
G1 X103.356 Y84.592 E0.0854
G1 X105.271 Y84.538 E0.2139
G1 X105.458 Y84.537 E0.2265
G1 X106.519 Y84.562 E0.2976
G1 X106.711 Y84.571 E0.3105
G1 X108.657 Y84.719 E0.4414
G1 X108.851 Y84.739 E0.4544
G1 X109.890 Y84.874 E0.5247
G1 X110.018 Y84.893 E0.5334
G1 X111.041 Y85.062 E0.6029
G1 X111.200 Y85.093 E0.6138
G1 X112.676 Y85.406 E0.7149
G1 X112.838 Y85.444 E0.7261
G1 X113.893 Y85.719 E0.7992
G1 X114.097 Y85.779 E0.8135
G1 X116.262 Y86.480 E0.9660
G1 X116.510 Y86.571 E0.9837
G1 X118.208 Y87.260 E1.1066
G1 X118.404 Y87.347 E1.1210
G1 X119.832 Y88.028 E1.2270
G1 X120.015 Y88.121 E1.2409
G1 X121.406 Y88.884 E1.3472
G1 X121.594 Y88.994 E1.3618
G1 X123.138 Y89.964 E1.4841
G1 X123.319 Y90.086 E1.4987
G1 X124.619 Y91.015 E1.6059
G1 X124.793 Y91.148 E1.6205
G1 X126.220 Y92.303 E1.7437
G1 X126.399 Y92.458 E1.7595
G1 X127.755 Y93.710 E1.8832
G1 X127.924 Y93.876 E1.8991
G1 X129.189 Y95.206 E2.0222
G1 X129.336 Y95.370 E2.0370
G1 X130.367 Y96.594 E2.1443
G1 X130.511 Y96.778 E2.1599
G1 X131.723 Y98.420 E2.2968
G1 X131.836 Y98.581 E2.3100
G1 X132.448 Y99.512 E2.3848
G1 X132.561 Y99.694 E2.3991
G1 X133.434 Y101.209 E2.5163
G1 X133.779 Y102.018 E2.5753
G1 X134.054 Y102.968 E2.6416
G1 X134.172 Y103.548 E2.6813
G1 X134.283 Y104.469 E2.7435
G1 X134.294 Y105.233 E2.7947
G1 X134.199 Y106.292 E2.8660
G1 X134.069 Y106.980 E2.9130
G1 X133.779 Y107.981 E2.9828
G1 X133.435 Y108.788 E3.0417
G1 X132.582 Y110.270 E3.1563
G1 X132.473 Y110.447 E3.1703
G1 X131.867 Y111.372 E3.2444
G1 X131.764 Y111.522 E3.2566
G1 X130.711 Y112.967 E3.3765
G1 X130.578 Y113.138 E3.3910
G1 X129.565 Y114.367 E3.4979
G1 X129.432 Y114.520 E3.5114
G1 X128.360 Y115.682 E3.6174
G1 X128.218 Y115.828 E3.6311
G1 X127.081 Y116.930 E3.7372
G1 X126.931 Y117.068 E3.7509
G1 X125.734 Y118.105 E3.8571
G1 X125.578 Y118.234 E3.8707
G1 X124.327 Y119.201 E3.9767
G1 X124.167 Y119.319 E3.9900
G1 X122.872 Y120.212 E4.0955
G1 X122.715 Y120.315 E4.1081
G1 X121.579 Y121.015 E4.1976
G1 X121.420 Y121.108 E4.2099
G1 X120.046 Y121.862 E4.3150
G1 X119.866 Y121.954 E4.3286
G1 X118.446 Y122.634 E4.4341
G1 X118.261 Y122.717 E4.4477
G1 X116.812 Y123.314 E4.5528
G1 X116.627 Y123.385 E4.5661
G1 X115.155 Y123.900 E4.6707
G1 X114.967 Y123.960 E4.6839
G1 X113.478 Y124.392 E4.7879
G1 X113.289 Y124.442 E4.8010
G1 X111.802 Y124.789 E4.9034
G1 X111.638 Y124.823 E4.9146
G1 X110.581 Y125.019 E4.9867
G1 X110.387 Y125.050 E4.9998
G1 X108.412 Y125.307 E5.1334
G1 X108.171 Y125.330 E5.1496
G1 X106.399 Y125.442 E5.2687
G1 X106.163 Y125.449 E5.2845
G1 X104.174 Y125.446 E5.4179
G1 X103.908 Y125.436 E5.4358
G1 X101.799 Y125.278 E5.5775
G1 X101.689 Y125.268 E5.5849
G1 X76.273 Y122.587 E7.2986
G1 X75.680 Y122.475 E7.3390
G1 X74.728 Y122.211 E7.4053
